src/view/frontend/web/svg/heroicons/outline/document-search.svg

<svg  viewBox="0 0 24 24" fill="none" stroke="currentColor" xmlns="http://www.w3.org/2000/svg">
<path d="M10 21H17C18.1046 21 19 20.1046 19 19V9.41421C19 9.149 18.8946 8.89464 18.7071 8.70711L13.2929 3.29289C13.1054 3.10536 12.851 3 12.5858 3H7C5.89543 3 5 3.89543 5 5V16M5 21L9.87868 16.1213M9.87868 16.1213C10.4216 16.6642 11.1716 17 12 17C13.6569 17 15 15.6569 15 14C15 12.3431 13.6569 11 12 11C10.3431 11 9 12.3431 9 14C9 14.8284 9.33579 15.5784 9.87868 16.1213Z"  stroke-width="2" stroke-linecap="round" stroke-linejoin="round"/>
</svg>

<svg xmlns="http://www.w3.org/2000/svg" fill="none" viewBox="0 0 24 24" stroke="currentColor">
  <path stroke-linecap="round" stroke-linejoin="round" stroke-width="2" d="M10 21h7a2 2 0 002-2V9.414a1 1 0 00-.293-.707l-5.414-5.414A1 1 0 0012.586 3H7a2 2 0 00-2 2v11m0 5l4.879-4.879m0 0a3 3 0 104.243-4.242 3 3 0 00-4.243 4.242z"/>
</svg>
